assets/folo/mono.svg

<svg viewBox="0 0 24 24" xmlns="http://www.w3.org/2000/svg"><path d="m5.382 0h13.236a5.37 5.37 0 0 1 5.382 5.383v13.235a5.37 5.37 0 0 1 -5.382 5.382h-13.236a5.37 5.37 0 0 1 -5.382-5.382v-13.235a5.37 5.37 0 0 1 5.382-5.382zm7.887 17.31a1.813 1.813 0 1 0 -3.626.002 1.813 1.813 0 0 0 3.626-.002m-.535-6.527h-5.521a1.813 1.813 0 1 0 0 3.624h5.521a1.813 1.813 0 1 0 0-3.624m4.417-4.712h-8.281a1.813 1.813 0 1 0 0 3.625h8.283a1.813 1.813 0 1 0 0-3.624z"/></svg>

<svg xmlns="http://www.w3.org/2000/svg" viewBox="0 0 24 24"><path d="M5.382 0h13.236A5.37 5.37 0 0 1 24 5.383v13.235A5.37 5.37 0 0 1 18.618 24H5.382A5.37 5.37 0 0 1 0 18.618V5.383A5.37 5.37 0 0 1 5.382.001zm7.887 17.31a1.813 1.813 0 1 0-3.626.002 1.813 1.813 0 0 0 3.626-.002m-.535-6.527H7.213a1.813 1.813 0 1 0 0 3.624h5.521a1.813 1.813 0 1 0 0-3.624m4.417-4.712H8.87a1.813 1.813 0 1 0 0 3.625h8.283a1.813 1.813 0 1 0 0-3.624z"/></svg>
